symbols/web/do_not_step/materialsymbolsoutlined/do_not_step_wght300grad200_24px.svg

<svg xmlns="http://www.w3.org/2000/svg" height="24" width="24"><path d="m20 16.75-1.5-1.5 4.375-4.375 1.475 1.5Zm-2.725-2.7-1.5-1.525 2.825-2.85-4.35-4.35-2.825 2.85L9.9 6.65l4.35-4.375 7.4 7.4ZM21.2 23.8l-6.925-6.95-3.5 3.5H.625V17.5q0-.675.375-1.2.375-.525 1-.775.575-.25 1.213-.587.637-.338 1.337-.813l1.4 1.4q.1.1.225.088.125-.013.225-.088.075-.1.088-.225.012-.125-.088-.225L5.05 13.7q.275-.25.525-.512.25-.263.55-.563l1.35 1.35q.1.1.213.087.112-.012.212-.087.1-.1.1-.237 0-.138-.1-.238l-1.45-1.475q.175-.3.337-.688.163-.387.288-.837l1.875 1.925q.125.075.225.1.1.025.225-.1.075-.1.088-.213.012-.112-.113-.237L.45 3.05l1.525-1.525 20.775 20.75ZM2.8 18.2h7.125l2.85-2.875L10.95 13.5l-3.275 3.275q-.65.625-1.512.587-.863-.037-1.463-.587l-.175-.175q-.4.275-.825.5-.425.225-.9.425Zm8.15-4.7Zm3.225-2.55Z"/></svg>

<svg xmlns="http://www.w3.org/2000/svg" height="24" width="24"><path d="M20 16.75 18.5 15.25 22.875 10.875 24.35 12.375ZM17.275 14.05 15.775 12.525 18.6 9.675 14.25 5.325 11.425 8.175 9.9 6.65 14.25 2.275 21.65 9.675ZM21.2 23.8 14.275 16.85 10.775 20.35H0.625V17.5Q0.625 16.825 1 16.3Q1.375 15.775 2 15.525Q2.575 15.275 3.213 14.938Q3.85 14.6 4.55 14.125L5.95 15.525Q6.05 15.625 6.175 15.613Q6.3 15.6 6.4 15.525Q6.475 15.425 6.488 15.3Q6.5 15.175 6.4 15.075L5.05 13.7Q5.325 13.45 5.575 13.188Q5.825 12.925 6.125 12.625L7.475 13.975Q7.575 14.075 7.688 14.062Q7.8 14.05 7.9 13.975Q8 13.875 8 13.738Q8 13.6 7.9 13.5L6.45 12.025Q6.625 11.725 6.787 11.337Q6.95 10.95 7.075 10.5L8.95 12.425Q9.075 12.5 9.175 12.525Q9.275 12.55 9.4 12.425Q9.475 12.325 9.488 12.212Q9.5 12.1 9.375 11.975L0.45 3.05L1.975 1.525L22.75 22.275ZM2.8 18.2H9.925L12.775 15.325L10.95 13.5L7.675 16.775Q7.025 17.4 6.163 17.362Q5.3 17.325 4.7 16.775L4.525 16.6Q4.125 16.875 3.7 17.1Q3.275 17.325 2.8 17.525ZM10.95 13.5Q10.95 13.5 10.95 13.5Q10.95 13.5 10.95 13.5Q10.95 13.5 10.95 13.5Q10.95 13.5 10.95 13.5ZM14.175 10.95Z"/></svg>
